app/dist/common/images/tsakos-energy-navigation.svg

<svg height="18" viewBox="0 0 18 18" width="18" xmlns="http://www.w3.org/2000/svg"><path d="m0 0h18v18h-18z" fill="#f0f3fa"/><path d="m6.5 15v-12h.5v12z"/><path d="m7 3h5v3h-5z" fill="#2e2e6e"/><path d="m12 5.87-2.27-1.34 2.27-1.3v-.23h-.14l-2.4 1.38-2.34-1.38h-.12v.24l2.2 1.29-2.2 1.26v.21h.17l2.3-1.32 2.23 1.32h.3z" fill="#fff"/><path d="m7 7h5v3h-5z" fill="#f5ec42"/><ellipse cx="9.5" cy="8.61" fill="#231f20" rx="1" ry="1"/><path d="m7 11h5v3h-5z" fill="#fff"/><path d="m12 12.63v-.26l-2.3-1.37h-.33l-2.37 1.38v.24l2.12 1.38h.82z" fill="#c82f29"/></svg>

<!-- by TradingView --><svg xmlns="http://www.w3.org/2000/svg" width="18" height="18" viewBox="0 0 18 18"><path fill="#F0F3FA" d="M0 0h18v18H0z"/><path d="M6.5 15V3H7v12h-.5z"/><path fill="#2E2E6E" d="M7 3h5v3H7z"/><path d="M12 5.87L9.73 4.53 12 3.23V3h-.14l-2.4 1.38L7.12 3H7v.24l2.2 1.29L7 5.79V6h.17l2.3-1.32L11.7 6h.3v-.13z" fill="#fff"/><path fill="#F5EC42" d="M7 7h5v3H7z"/><ellipse cx="9.5" cy="8.61" rx="1" ry="1" fill="#231F20"/><path fill="#fff" d="M7 11h5v3H7z"/><path d="M12 12.63v-.26L9.7 11h-.33L7 12.38v.24L9.12 14h.82L12 12.63z" fill="#C82F29"/></svg>
